X:809
T:Reel 809
M:4/4
K:Dmaj
L:1/8
FE|D2DF AFDF|AFdB AFEF|DFAB AFdF|EDEF EDB,A,|D2AF AFdB|AFdB AFDF|GFGA BABd|ceAc d2|A2|Add2 BAFA|GBAF E2Bc|dcdA BABc|defd B2dB|AFdc BAFA|dced BcdB|AFDE FDEC|B,DDE D2|
